app/assets/images/remix_icon/user/contacts-line.svg

<svg viewBox="0 0 24 24" xmlns="http://www.w3.org/2000/svg"><path d="M19 7H24V9H19V7ZM17 12H24V14H17V12ZM20 17H24V19H20V17ZM2 22C2 17.5817 5.58172 14 10 14C14.4183 14 18 17.5817 18 22H16C16 18.6863 13.3137 16 10 16C6.68629 16 4 18.6863 4 22H2ZM10 13C6.685 13 4 10.315 4 7C4 3.685 6.685 1 10 1C13.315 1 16 3.685 16 7C16 10.315 13.315 13 10 13ZM10 11C12.21 11 14 9.21 14 7C14 4.79 12.21 3 10 3C7.79 3 6 4.79 6 7C6 9.21 7.79 11 10 11Z"/></svg>

<svg xmlns="http://www.w3.org/2000/svg" viewBox="0 0 24 24">
    <g>
        <path fill="none" d="M0 0h24v24H0z"/>
        <path d="M19 7h5v2h-5V7zm-2 5h7v2h-7v-2zm3 5h4v2h-4v-2zM2 22a8 8 0 1 1 16 0h-2a6 6 0 1 0-12 0H2zm8-9c-3.315 0-6-2.685-6-6s2.685-6 6-6 6 2.685 6 6-2.685 6-6 6zm0-2c2.21 0 4-1.79 4-4s-1.79-4-4-4-4 1.79-4 4 1.79 4 4 4z"/>
    </g>
</svg>
